img/logo_dashboard.svg

<svg width="28" height="32" viewBox="0 0 28 32" fill="none" xmlns="http://www.w3.org/2000/svg">
<path d="M9.792 5.458C10.08 5.008 10.26 4.468 10.26 3.91C10.26 1.876 8.604 0.399999 6.39 0.399999H3.96H1.53C1.242 0.399999 1.08 0.561999 1.08 0.85V12.55C1.08 12.838 1.242 13 1.53 13H1.8H7.902C10.188 13 11.88 11.308 11.88 9.04C11.88 7.456 11.052 6.16 9.792 5.458ZM6.39 3.1C6.984 3.1 7.38 3.496 7.38 4.09C7.38 4.378 7.254 4.684 7.02 4.9H3.96V3.1H6.39ZM7.542 10.3H3.96V7.42H7.56C8.586 7.42 9 8.05 9 8.86C9 9.67 8.586 10.3 7.542 10.3ZM25.5523 0.399999H24.5983H23.1403C22.8883 0.399999 22.7083 0.508 22.6183 0.741999L19.7023 7.672L16.7863 0.741999C16.6963 0.508 16.5163 0.399999 16.2643 0.399999H15.8323H13.8523C13.5643 0.399999 13.4023 0.561999 13.4023 0.85V12.55C13.4023 12.838 13.5643 13 13.8523 13H15.8323C16.1203 13 16.2823 12.838 16.2823 12.55V5.278L18.5683 10.696C18.6583 10.93 18.8383 11.038 19.0903 11.038H20.3143C20.5663 11.038 20.7463 10.93 20.8363 10.696L23.1223 5.278V12.55C23.1223 12.838 23.2843 13 23.5723 13H25.5523C25.8403 13 26.0023 12.838 26.0023 12.55V0.85C26.0023 0.561999 25.8403 0.399999 25.5523 0.399999ZM7.092 31.252C9.99 31.252 12.456 29.416 13.158 26.788C13.23 26.5 13.068 26.32 12.762 26.32H10.638C10.386 26.32 10.242 26.446 10.134 26.68C9.63 27.778 8.46 28.444 7.092 28.444C4.86 28.444 3.42 26.95 3.42 24.7C3.42 22.45 4.86 20.956 7.092 20.956C8.46 20.956 9.63 21.622 10.134 22.72C10.242 22.954 10.386 23.08 10.638 23.08H12.762C13.068 23.08 13.23 22.882 13.158 22.576C12.42 19.948 9.972 18.148 7.092 18.148C3.294 18.148 0.54 20.992 0.54 24.7C0.54 28.408 3.294 31.252 7.092 31.252ZM20.5393 31.252C24.1573 31.252 27.0913 28.408 27.0913 24.7C27.0913 20.992 24.1573 18.148 20.5393 18.148C16.9213 18.148 13.9873 20.992 13.9873 24.7C13.9873 28.408 16.9213 31.252 20.5393 31.252ZM20.5393 28.444C18.4873 28.444 16.8673 26.95 16.8673 24.7C16.8673 22.45 18.4873 20.956 20.5393 20.956C22.5913 20.956 24.2113 22.45 24.2113 24.7C24.2113 26.95 22.5913 28.444 20.5393 28.444Z" fill="#7583AA"/>
</svg>

<svg width="28" height="32" viewBox="0 0 28 32" fill="none" xmlns="http://www.w3.org/2000/svg"><path d="M9.792 5.458c.288-.45.468-.99.468-1.548C10.26 1.876 8.604.4 6.39.4H1.53c-.288 0-.45.162-.45.45v11.7c0 .288.162.45.45.45h6.372c2.286 0 3.978-1.692 3.978-3.96 0-1.584-.828-2.88-2.088-3.582zM6.39 3.1c.594 0 .99.396.99.99 0 .288-.126.594-.36.81H3.96V3.1h2.43zm1.152 7.2H3.96V7.42h3.6C8.586 7.42 9 8.05 9 8.86c0 .81-.414 1.44-1.458 1.44zM25.552.4H23.14c-.252 0-.432.108-.522.342l-2.916 6.93-2.916-6.93c-.09-.234-.27-.342-.522-.342h-2.412c-.288 0-.45.162-.45.45v11.7c0 .288.162.45.45.45h1.98c.288 0 .45-.162.45-.45V5.278l2.286 5.418c.09.234.27.342.522.342h1.224c.252 0 .432-.108.522-.342l2.286-5.418v7.272c0 .288.162.45.45.45h1.98c.288 0 .45-.162.45-.45V.85c0-.288-.162-.45-.45-.45zM7.092 31.252c2.898 0 5.364-1.836 6.066-4.464.072-.288-.09-.468-.396-.468h-2.124c-.252 0-.396.126-.504.36-.504 1.098-1.674 1.764-3.042 1.764-2.232 0-3.672-1.494-3.672-3.744s1.44-3.744 3.672-3.744c1.368 0 2.538.666 3.042 1.764.108.234.252.36.504.36h2.124c.306 0 .468-.198.396-.504-.738-2.628-3.186-4.428-6.066-4.428C3.294 18.148.54 20.992.54 24.7c0 3.708 2.754 6.552 6.552 6.552zm13.447 0c3.618 0 6.552-2.844 6.552-6.552 0-3.708-2.934-6.552-6.552-6.552-3.618 0-6.552 2.844-6.552 6.552 0 3.708 2.934 6.552 6.552 6.552zm0-2.808c-2.052 0-3.672-1.494-3.672-3.744s1.62-3.744 3.672-3.744 3.672 1.494 3.672 3.744-1.62 3.744-3.672 3.744z" fill="#7583AA"/></svg>
